svg/transport/UFO_line.svg

<svg xmlns="http://www.w3.org/2000/svg" width="24" height="24" viewBox="0 0 24 24"><g fill="none" fill-rule="evenodd"><rect width="24" height="24"/><path fill="#09244B" d="M12,3 C12.8284,3 13.5,3.67157 13.5,4.5 C13.5,4.88871875 13.3521578,5.24290016 13.1095982,5.50937252 L13,5.61805 L13,7.07089 C16.1268,7.51815 18.5871,10.0318 18.953,13.1842 C20.3359,13.7583 22,14.8084 22,16.5001 C22,18.0743615 20.5737346,19.0878518 19.2401405,19.6913429 L18.8953473,19.839574 C18.8385651,19.8627621 18.7822077,19.8852 18.7264,19.9069 C16.9555,20.5956 14.577,21.0001 12,21.0001 C9.42296,21.0001 7.04448,20.5956 5.27359,19.9069 L5.10463949,19.839574 L5.10463949,19.839574 L4.7598417,19.6913429 C3.42623408,19.0878518 2,18.0743615 2,16.5001 C2,14.8084 3.66412,13.7583 5.04703,13.1842 C5.40302135,10.117 7.7416939,7.65448955 10.7479606,7.11165439 L11,7.07089 L11,5.61805 C10.6931,5.34339 10.5,4.94425 10.5,4.5 C10.5,3.67157 11.1716,3 12,3 Z M18.5514511,15.1876899 L18.2203,15.0456 L18.2203,15.0456 L18.0274661,15.1544176 L18.0274661,15.1544176 L17.7956064,15.2754752 C17.7118249,15.3175067 17.6215532,15.3610366 17.5248053,15.4055233 L17.2151472,15.541312 C16.1182857,15.999898 14.3752143,16.5 12,16.5 C9.6248,16.5 7.88170204,15.999898 6.78484242,15.541312 L6.47518582,15.4055233 C6.42681229,15.3832799 6.38005789,15.3612758 6.33492439,15.3395785 L6.08358827,15.2136195 L6.08358827,15.2136195 L5.8712385,15.0982757 C5.83910045,15.0801168 5.80859036,15.0625357 5.77971,15.0456 L5.44854732,15.1876899 L5.44854732,15.1876899 L5.18254746,15.3121953 C4.63079972,15.5841969 4,15.9921471 4,16.5001 C4,17.1105778 4.87507346,17.5749025 5.52368693,17.8520929 L5.89861801,18.0041047 L5.89861801,18.0041047 L5.99849,18.0429 C7.48496,18.621 9.60648,19.0001 12,19.0001 C14.2439063,19.0001 16.24875,18.6669066 17.7154285,18.1489177 L18.1013661,18.0041047 L18.1013661,18.0041047 L18.4762882,17.8520929 C19.1248963,17.5749025 20,17.1105778 20,16.5001 C20,15.9921471 19.3691903,15.5841969 18.8174473,15.3121953 L18.5514511,15.1876899 L18.5514511,15.1876899 Z M12,9 C9.42391,9 7.30283,10.9482 7.02973,13.4516 L7.24108713,13.5564478 L7.24108713,13.5564478 L7.49415053,13.6706762 C7.53980958,13.6902856 7.5872111,13.7101283 7.63635746,13.7301252 L7.95219256,13.8513271 C8.85035493,14.1761043 10.1964035,14.5 12,14.5 C14.0290696,14.5 15.4790427,14.0900696 16.3636762,13.7301252 L16.6376344,13.612626 L16.6376344,13.612626 L16.8698288,13.5026147 C16.9050539,13.4851138 16.9385435,13.4680826 16.9703,13.4516 C16.6972,10.9482 14.5761,9 12,9 Z"/></g></svg>

<svg xmlns="http://www.w3.org/2000/svg" width="24" height="24"><g fill="none" fill-rule="evenodd"><path d="M0 0h24v24H0z"/><path fill="#09244B" d="M12 3a1.5 1.5 0 0 1 1.11 2.51l-.11.108v1.453a7.004 7.004 0 0 1 5.953 6.113C20.336 13.758 22 14.808 22 16.5c0 1.574-1.426 2.588-2.76 3.191l-.345.149-.169.067C16.956 20.596 14.577 21 12 21s-4.956-.404-6.726-1.093l-.17-.067-.344-.149C3.426 19.088 2 18.074 2 16.501c0-1.693 1.664-2.743 3.047-3.317a7.005 7.005 0 0 1 5.701-6.072L11 7.07V5.618A1.5 1.5 0 0 1 12 3m6.551 12.188-.33-.142-.194.108-.231.121a8.84 8.84 0 0 1-.271.13l-.31.136c-1.097.459-2.84.959-5.215.959s-4.118-.5-5.215-.959l-.31-.135a9.052 9.052 0 0 1-.14-.066l-.251-.126-.213-.116a6.578 6.578 0 0 1-.091-.052l-.331.142-.266.124C4.63 15.584 4 15.992 4 16.5c0 .61.875 1.075 1.524 1.352l.375.152.1.039C7.484 18.62 9.605 19 12 19c2.244 0 4.249-.333 5.715-.851l.386-.145.375-.152C19.125 17.575 20 17.111 20 16.5c0-.508-.63-.916-1.183-1.188zM12 9a5 5 0 0 0-4.97 4.452l.211.104.253.115.142.06.316.12c.898.325 2.244.649 4.048.649 2.03 0 3.479-.41 4.364-.77l.274-.117.232-.11.1-.051A5 5 0 0 0 12 9"/></g></svg>
